tenants/businesswise/icons/direction_right.svg

<svg fill="none" height="24" viewBox="0 0 24 24" width="24" xmlns="http://www.w3.org/2000/svg"><path d="m8.65906 21.9999c.21339.0006.42419-.0467.61695-.1382s.36259-.2251.49705-.3908l6.90004-8.57c.2101-.2555.325-.5761.325-.907 0-.3308-.1149-.6514-.325-.907l-7.14304-8.57097c-.24241-.29173-.59078-.47523-.96848-.51011s-.75379.08171-1.04552.32411c-.29174.24241-.47524.59078-.51012.96848s.08171.75378.32412 1.04552l6.38604 7.65697-6.17104 7.656c-.17497.2096-.28618.465-.32046.7359-.03428.2708.00981.5458.12705.7924s.3027.4544.53442.5988.49998.2193.77299.2159z" fill="#000"/></svg>

<svg width="24" height="24" viewBox="0 0 24 24" fill="none" xmlns="http://www.w3.org/2000/svg">
<path d="M8.65906 21.9999C8.87245 22.0005 9.08325 21.9532 9.27601 21.8617C9.46877 21.7702 9.6386 21.6366 9.77306 21.4709L16.6731 12.9009C16.8832 12.6454 16.9981 12.3248 16.9981 11.9939C16.9981 11.6631 16.8832 11.3425 16.6731 11.0869L9.53006 2.51593C9.28765 2.2242 8.93928 2.0407 8.56158 2.00582C8.18388 1.97094 7.80779 2.08753 7.51606 2.32993C7.22432 2.57234 7.04082 2.92071 7.00594 3.29841C6.97106 3.67611 7.08765 4.05219 7.33006 4.34393L13.7161 12.0009L7.54506 19.6569C7.37009 19.8665 7.25888 20.1219 7.2246 20.3928C7.19032 20.6636 7.23441 20.9386 7.35165 21.1852C7.46889 21.4318 7.65435 21.6396 7.88607 21.784C8.11779 21.9284 8.38605 22.0033 8.65906 21.9999Z" fill="black"/>
</svg>
